X:2
T:39. Trindskallar r vi allihopa
C:swedish trad
R:polska
Q:&quot;Moderato&quot;
L:1/8
M:4/4
K:G
d2d>e d>c | c>BG2B2 | d>cD2F>A |1 c>B G>A B>c :|2 c>BG2z2 |
|:D2F>F A>A | d>ef2d2 | e>f g>e ^c>e |1 e>d f>d A>F :|2 e>dd4 |
|:d2d>e d>c | c>BG2B2 | d>cD2F>A |1 c>B G>A B>c :|2 c>BG2z2 |]
